X:1013
T:Baille de Panderu (CT 154)
R:Panderu
C:Tradicional
S:Música Tradicional Asturiana, (C) Tello & Tito. Asturies, 2001.
S:http://pagina.de/MusTradAst <telloytito@asturies.org>
N:Canción de Baille de Panderu, transcrita en Muriellos, ayuntamiento de Riosa.
O:Muriellos (Riosa)
A:Asturies
Z:Cancioneru de Torner 154
M:6/8
L:1/8
Q:3/8=88
W:Non quiero casa caída,
W:nin panera derribada,
W:nin casamiento a disgusto:
W:donde no hay gusto no hay nada.
W:
W:Non quiero casa caída,
W:nin panera derribada.
K:G
|GBB ABc|B2 A-A3|FBB AcB|A2 G-G3|
GBB ABc|B2 A-A3|FBB AcB|A2 G-G2 z|
GBB ABc|B2 A-A3|FBB AcB|A2 G-G3-|G3||


